X:165
T:Sma sorkarna
R:sl\"angpolska
H:efter Helena M{\aa}rtensson (d 1880), Burs
H:N\"ar gossarna ej vilja dansa med flickorna, utan \"aro tr\"otta,
H:taga flickorna mod till sig ock dansa ensamma, varvid de
H:uppst\"amma nedanskrivna melodi och t\"axt
A:Gotland
Z:id:hn-sp-165
M:3/4
L:1/16
K:Dm
f4 e2^c2 d2e2 | f3f e2^c2 d2e2 | f3f e2^c2 d2e2 |
w:Sma sor-kar-na di sta b\"ai dur-ar-ne u s\"air pa j{\aa}m-fr\"aur-na di
f3e d2f2 e2d2 | ^c4 A8 :||: f3g a4 g3b | a2gf e2g2 g2b2 |
w:vill s{\aa} mi-k\"a g\"an-ne dan-s\"a. Vi' ni dan-s\"a sma sor-kar_ ung_ge, ska
a2f2 d4 f2f2 | ^c2ce d8 :|
w:j{\aa}m-fr\"aun sjung-g\"a: fa-ral-la-di-da!

